src/Assets/Icons/HomeScreen/DataManagementComponent/titleIcon2.svg

<svg width="84" height="69" viewBox="0 0 84 69" fill="none" xmlns="http://www.w3.org/2000/svg">
<path d="M31.5001 4.22655C23.5001 2.62655 14.1668 9.89322 10.5001 13.7265C11.8334 12.5404 13.5001 11.2797 9.50009 15.7266C4.50009 21.2851 3.50009 38.2266 4.00009 46.2266C4.50009 54.2266 20.0001 65.7266 33.5001 66.2266C47.0001 66.7266 65.5001 72.2266 76.0001 58.7266C86.5001 45.2266 75.0001 31.7266 71.5001 31.2266C68.0001 30.7266 67.0001 28.7266 59.0001 18.2266C51.0001 7.72656 41.5001 6.22655 31.5001 4.22655Z" fill="#0000FF"/>
<path d="M37.4353 21.1514C33.038 21.1514 30.103 22.882 28.2358 25.1692C26.318 27.5171 25.4375 30.5482 25.4375 33.1492C25.4375 36.909 28.5394 40.0058 30.2549 43.1584C30.8823 44.307 31.4389 45.653 31.4389 47.1458V51.0675C38.2551 51.0928 42.9915 51.0675 43.4368 51.0675V47.1458C43.4368 45.653 43.9934 44.307 44.6158 43.1584C46.3515 39.9755 49.4332 36.914 49.4332 33.1492C49.4332 30.5482 48.5577 27.5171 46.6348 25.1692C44.7676 22.882 41.8327 21.1514 37.4353 21.1514Z" fill="white"/>
<path d="M66.8306 24.0817C62.5294 10.1357 49.5296 0 34.1769 0C15.3022 0 0 15.2971 0 34.1667C0 53.0364 15.2971 68.3436 34.1769 68.3436H61.5528C73.9504 68.3436 84 58.294 84 45.8964C84 35.3205 76.6829 26.4448 66.8306 24.0817ZM49.8636 49.8231C49.8636 57.5349 50.1875 58.213 48.9376 59.22C48.3202 59.7159 47.5207 59.7766 47.379 59.7716C47.2525 59.7665 27.5125 59.7716 27.4872 59.7716C27.3405 59.7766 26.546 59.7159 25.9287 59.22C24.6484 58.1877 25.0027 57.5046 25.0027 49.8231C25.0027 46.1747 17.5439 40.5831 17.5439 32.421C17.5439 28.1957 18.9405 23.267 22.1487 19.3453C25.4176 15.3477 30.4778 12.5292 37.4357 12.5292C44.3935 12.5292 49.4537 15.3477 52.7227 19.3453C55.9308 23.2619 57.3275 28.1906 57.3275 32.421C57.3275 40.5629 49.8687 46.1848 49.8687 49.8231H49.8636Z" fill="white"/>
</svg>

<svg xmlns="http://www.w3.org/2000/svg" width="84" height="69" fill="none"><path fill="#00F" d="M31.5 4.227c-8-1.6-17.333 5.666-21 9.5 1.333-1.187 3-2.447-1 2-5 5.558-6 22.5-5.5 30.5s16 19.5 29.5 20 32 6 42.5-7.5-1-27-4.5-27.5-4.5-2.5-12.5-13-17.5-12-27.5-14"/><path fill="#fff" d="M37.435 21.151c-4.397 0-7.332 1.731-9.2 4.018-1.917 2.348-2.797 5.38-2.797 7.98 0 3.76 3.101 6.857 4.817 10.01.627 1.148 1.184 2.494 1.184 3.987v3.922c6.816.025 11.553 0 11.998 0v-3.922c0-1.493.556-2.839 1.179-3.988 1.736-3.183 4.817-6.244 4.817-10.009 0-2.6-.875-5.632-2.798-7.98-1.867-2.287-4.802-4.018-9.2-4.018"/><path fill="#fff" d="M66.83 24.082C62.53 10.136 49.53 0 34.178 0 15.302 0 0 15.297 0 34.167s15.297 34.177 34.177 34.177h27.376C73.95 68.344 84 58.294 84 45.896c0-10.575-7.317-19.451-17.17-21.814M49.865 49.823c0 7.712.324 8.39-.926 9.397-.618.496-1.417.557-1.559.552-.127-.005-19.866 0-19.892 0-.146.005-.941-.056-1.558-.552-1.28-1.032-.926-1.715-.926-9.397 0-3.648-7.46-9.24-7.46-17.402 0-4.225 1.398-9.154 4.606-13.076 3.269-3.997 8.329-6.816 15.287-6.816s12.018 2.819 15.287 6.816c3.208 3.917 4.605 8.846 4.605 13.076 0 8.142-7.46 13.764-7.46 17.402z"/></svg>
